X:9  
T:Dessert
C:G. Chabenat
I:Airs nouveaux pour danses anciennes
Q:1/4=75 
M:3/8
K:G
d2 dA de |d2 G2 E2 |c4 B2 |A2 G4 |
d2 dA de |d2 G2 E2 |c2 B2 c2 |A6 :|
dc A=f eA |dc AB cA |d2 G2 c2 |A6 |
dA c=f dg |=fe dc _ed |Bc dc AB |G6 :|
